X: 1
T: John Doherty's
M: 4/4
L: 1/8
R: reel
K: Ador
EAAB cABd|cABA G2GF|GABG EAAB|cABd cABG|
EAAG EAAB|cABd cABA|G2GF GABG|EAAB cABd|cABG EAA^c|
|eee^c d2cd|efe^c d2cd|eee^c dfed|^cABG A2cd|
eee^c d2cd|efe^c d2cd|eage d=fed|cABd cABG||
